X: 1
T:Amelia's
L:1/8
M:3/4
C:Bob McQuillen
Z:Posted by Paul O'Brien 11/98
Z:(with abc fixes from Laurie Griffiths and Graham Ross Walden)
K:D
A, |: "D"D3 E D2|"D"D2 F3 E|"Bm"D2 F2 BF|"F#m"A3 F A2|\
"G"B2 G3 B|"D"A2 F3 E|"Bm"D2 B,3 ^A,|"G"B,4 A,2|
"D"D3 E D2|"D"D2 F3 E|"Bm"D2 F2 BF|"F#m"A3 F A2|\
"G"B3 c d2|"G"d2 e2 f2|"A"e2 c2 A2\
|1 "A"A3 G FE :|2"A"A3 f ag ||
|: "D"f2 a3 b |"D"a2 f2 df|"A"e3 c B2|"A"A3 c fe|\
"Bm"d3 c d2|"Bm"f3 e d2|"F#m"c3 B A2|"F#m"F3 E F2|
"G"G2 B3 G|"D"F2 A2 d2|"A"e3 c e2|"D"f2 d2 f2|\
"G"g3 f g2|"D"a2 f2 e2|"A"d2 e2 c2|"D"d4 z2 :|
